packages/icons/src/__generated__/nav/svg/nav-apiPlug-12-inactive.svg

<svg xmlns="http://www.w3.org/2000/svg" fill="#1652F0" viewBox="0 0 12 12"><path d="M10.989.995h-1.5v10h1.5v-10Zm-10 5a4 4 0 0 1 4-4h1.5v2h2v1.25h-2v1.5h2v1.25h-2v2h-1.5a4 4 0 0 1-4-4Zm1.2 0a2.8 2.8 0 0 0 2.8 2.8h.3v-5.6h-.3a2.8 2.8 0 0 0-2.8 2.8Z"/></svg>

<svg xmlns="http://www.w3.org/2000/svg" fill="#1652F0" viewBox="0 0 12 12"><path d="M11 1H9.5v10H11V1ZM1 6a4 4 0 0 1 4-4h1.5v2h2v1.25h-2v1.5h2V8h-2v2H5a4 4 0 0 1-4-4Zm1.2 0A2.8 2.8 0 0 0 5 8.8h.3V3.2H5A2.8 2.8 0 0 0 2.2 6Z"/></svg>
